T: Finnish, The
M: 2/4
L: 1/8
K: Amin
A>A AB | cA Ac | BG GB | c/B/A/G/ AE |A>A AB | cA Ac | de/d/ cB |[1 A2 A :|[2 A2 A2 |||: Ec ce | dB Bc | de/d/ cB | AB cd |ec ce | dB Bc | de/d/ cB |[1 A2 A2 :|[2 A2 A |]
